storybook/icons/teaser/collaboration.svg

<svg width="36" height="36" viewBox="0 0 36 36" fill="none" xmlns="http://www.w3.org/2000/svg">
<path d="M18 0C16.0118 0 14.4 1.61175 14.4 3.6C14.4 5.58825 16.0118 7.2 18 7.2C19.9875 7.19805 21.5981 5.58743 21.6 3.6C21.6 1.61175 19.9883 0 18 0ZM18 6C16.6746 6 15.6 4.92548 15.6 3.6C15.6 2.27453 16.6746 1.2 18 1.2C19.3255 1.2 20.4 2.27453 20.4 3.6C20.4 4.92548 19.3255 6 18 6Z" fill="black"/>
<path d="M20.4 7.80005H20.2584L20.1318 7.86305C18.7892 8.53152 17.2108 8.53152 15.8682 7.86305L15.7416 7.80005H15.6C13.944 7.802 12.6019 9.14405 12.6 10.8V14.4C12.6 15.3942 13.4059 16.2 14.4 16.2H21.6C22.5941 16.2 23.4 15.3942 23.4 14.4V10.8C23.398 9.14405 22.056 7.802 20.4 7.80005ZM22.2 14.4C22.2 14.7314 21.9313 15 21.6 15H14.4C14.0686 15 13.8 14.7314 13.8 14.4V10.8C13.8001 9.85565 14.5301 9.0719 15.4722 9.00485C17.0753 9.74885 18.9247 9.74885 20.5278 9.00485C21.4698 9.0719 22.1998 9.85565 22.2 10.8V14.4Z" fill="black"/>
<path d="M30.6 19.8C28.6117 19.8 27 21.4118 27 23.4001C27 25.3883 28.6117 27.0001 30.6 27.0001C32.5882 27.0001 34.2 25.3883 34.2 23.4001C34.198 21.4126 32.5874 19.802 30.6 19.8ZM30.6 25.8001C29.2745 25.8001 28.2 24.7255 28.2 23.4001C28.2 22.0746 29.2745 21 30.6 21C31.9255 21 33 22.0746 33 23.4001C33 24.7255 31.9255 25.8001 30.6 25.8001Z" fill="black"/>
<path d="M32.9999 27.6001H32.8583L32.7317 27.6601C31.3892 28.3285 29.8107 28.3285 28.4681 27.6601L28.3415 27.6001H28.1999C26.544 27.602 25.2019 28.9441 25.2 30.6001V34.2001C25.2 35.1942 26.0058 36.0001 27 36.0001H34.1999C35.1941 36.0001 35.9999 35.1942 35.9999 34.2001V30.6001C35.998 28.9441 34.6559 27.602 32.9999 27.6001ZM34.7999 34.2001C34.7999 34.5314 34.5313 34.8001 34.1999 34.8001H27C26.6686 34.8001 26.4 34.5314 26.4 34.2001V30.6001C26.4001 29.6557 27.1301 28.8719 28.0721 28.8049C29.6753 29.5489 31.5246 29.5489 33.1277 28.8049C34.0698 28.8719 34.7998 29.6557 34.7999 30.6001V34.2001Z" fill="black"/>
<path d="M5.40005 19.8C3.4118 19.8 1.80005 21.4118 1.80005 23.4001C1.80005 25.3883 3.4118 27.0001 5.40005 27.0001C7.3883 27.0001 9.00005 25.3883 9.00005 23.4001C8.9981 21.4126 7.38747 19.802 5.40005 19.8ZM5.40005 25.8001C4.07457 25.8001 3.00005 24.7255 3.00005 23.4001C3.00005 22.0746 4.07457 21 5.40005 21C6.72552 21 7.80005 22.0746 7.80005 23.4001C7.80005 24.7255 6.72552 25.8001 5.40005 25.8001Z" fill="black"/>
<path d="M7.8 27.6001H7.6584L7.5318 27.6601C6.18923 28.3285 4.61077 28.3285 3.2682 27.6601L3.1416 27.6001H3C1.344 27.602 0.00195 28.9441 0 30.6001V34.2001C0 35.1942 0.805875 36.0001 1.8 36.0001H9C9.99413 36.0001 10.8 35.1942 10.8 34.2001V30.6001C10.7981 28.9441 9.456 27.602 7.8 27.6001ZM9.6 34.2001C9.6 34.5314 9.33135 34.8001 9 34.8001H1.8C1.46865 34.8001 1.2 34.5314 1.2 34.2001V30.6001C1.20015 29.6557 1.93013 28.8719 2.8722 28.8049C4.47533 29.5489 6.32468 29.5489 7.9278 28.8049C8.86988 28.8719 9.59985 29.6557 9.6 30.6001V34.2001Z" fill="black"/>
<path d="M23.953 30.4707C23.9527 30.47 23.9524 30.4693 23.9521 30.4686C23.8222 30.1637 23.4697 30.0219 23.1649 30.1518C20.4556 31.2873 17.4466 31.4944 14.6071 30.741L15.1687 30.576C15.4869 30.4828 15.6693 30.1495 15.5761 29.8314C15.483 29.5132 15.1497 29.3308 14.8315 29.424L12.4315 30.1278C12.4225 30.1278 12.4159 30.138 12.4075 30.141C12.352 30.1617 12.2998 30.1906 12.2527 30.2268C12.2319 30.238 12.2119 30.2506 12.1927 30.2646C12.1294 30.3211 12.0793 30.3907 12.0457 30.4686C12.0132 30.547 11.9977 30.6315 12.0001 30.7164C12.0148 30.7976 12.0348 30.8778 12.0601 30.9564C12.0637 30.9648 12.0601 30.9744 12.0667 30.9828L13.2667 33.279C13.4202 33.5729 13.7828 33.6868 14.0767 33.5334C14.3707 33.3799 14.4846 33.0173 14.3311 32.7234L13.8427 31.7898C17.0688 32.7595 20.5324 32.5711 23.6341 31.257C23.9392 31.1279 24.082 30.7759 23.953 30.4707Z" fill="black"/>
<path d="M34.0242 15.7757C33.7899 15.5415 33.4101 15.5415 33.1758 15.7757L32.3268 16.6247C31.83 11.3695 28.4935 6.80901 23.6352 4.74471C23.3303 4.61481 22.9779 4.75663 22.848 5.06151C22.7181 5.36639 22.8599 5.71881 23.1648 5.84871C27.523 7.70099 30.5526 11.7489 31.101 16.4525L30.4242 15.7757C30.1858 15.5455 29.806 15.5521 29.5758 15.7904C29.3512 16.0229 29.3512 16.3915 29.5758 16.6241L31.3758 18.4241C31.6098 18.6587 31.9897 18.6592 32.2243 18.4252C32.2247 18.4248 32.2251 18.4244 32.2254 18.4241L34.0254 16.6241C34.2593 16.3895 34.2588 16.0097 34.0242 15.7757Z" fill="black"/>
<path d="M13.1826 5.19542C13.1806 5.1604 13.1755 5.12567 13.167 5.09162C13.167 5.08622 13.1604 5.08262 13.158 5.07662C13.1556 5.07062 13.158 5.06642 13.158 5.06162C13.1416 5.03245 13.1227 5.0047 13.1016 4.97882C13.0822 4.94365 13.0592 4.9105 13.0332 4.87982C12.9977 4.8484 12.9584 4.82162 12.9162 4.80002C12.8951 4.7821 12.8726 4.76582 12.849 4.75142L10.449 3.65522C10.1425 3.52937 9.7919 3.67585 9.66605 3.98237C9.54703 4.27225 9.67115 4.60495 9.95098 4.74602L11.1936 5.31422C6.5156 7.8178 3.5966 12.6942 3.59998 18C3.59998 18.3314 3.86863 18.6 4.19998 18.6C4.53133 18.6 4.79998 18.3314 4.79998 18C4.79698 13.328 7.26755 9.00362 11.2938 6.63362L10.86 7.54022C10.717 7.8385 10.8423 8.19625 11.1402 8.34002C11.2211 8.37955 11.3099 8.4001 11.4 8.40002C11.6304 8.39972 11.8402 8.2675 11.94 8.05982L13.14 5.55602C13.14 5.55002 13.14 5.54342 13.1448 5.53742C13.1604 5.4964 13.1713 5.45372 13.1772 5.41022C13.1875 5.3779 13.1951 5.34482 13.2 5.31122C13.198 5.27215 13.1922 5.23337 13.1826 5.19542Z" fill="black"/>
</svg>

<svg width="36" height="36" fill="none" xmlns="http://www.w3.org/2000/svg"><path d="M18 0a3.6 3.6 0 100 7.2A3.6 3.6 0 0018 0zm0 6a2.4 2.4 0 110-4.8A2.4 2.4 0 0118 6zM20.4 7.8h-.142l-.126.063a4.783 4.783 0 01-4.264 0l-.126-.063H15.6a3.004 3.004 0 00-3 3v3.6a1.8 1.8 0 001.8 1.8h7.2a1.8 1.8 0 001.8-1.8v-3.6a3.004 3.004 0 00-3-3zm1.8 6.6a.6.6 0 01-.6.6h-7.2a.6.6 0 01-.6-.6v-3.6a1.8 1.8 0 011.672-1.795 6.005 6.005 0 005.056 0A1.8 1.8 0 0122.2 10.8v3.6zM30.6 19.8a3.6 3.6 0 100 7.2 3.6 3.6 0 000-7.2zm0 6a2.4 2.4 0 110-4.8 2.4 2.4 0 010 4.8zM33 27.6h-.142l-.126.06a4.783 4.783 0 01-4.264 0l-.127-.06H28.2a3.004 3.004 0 00-3 3v3.6A1.8 1.8 0 0027 36h7.2a1.8 1.8 0 001.8-1.8v-3.6a3.004 3.004 0 00-3-3zm1.8 6.6a.6.6 0 01-.6.6H27a.6.6 0 01-.6-.6v-3.6a1.8 1.8 0 011.672-1.795 6.005 6.005 0 005.056 0A1.8 1.8 0 0134.8 30.6v3.6zM5.4 19.8a3.6 3.6 0 100 7.2 3.6 3.6 0 000-7.2zm0 6a2.4 2.4 0 110-4.8 2.4 2.4 0 010 4.8zM7.8 27.6h-.142l-.126.06a4.783 4.783 0 01-4.264 0l-.126-.06H3a3.004 3.004 0 00-3 3v3.6A1.8 1.8 0 001.8 36H9a1.8 1.8 0 001.8-1.8v-3.6a3.004 3.004 0 00-3-3zm1.8 6.6a.6.6 0 01-.6.6H1.8a.6.6 0 01-.6-.6v-3.6a1.8 1.8 0 011.672-1.795 6.005 6.005 0 005.056 0A1.8 1.8 0 019.6 30.6v3.6zM23.953 30.47v-.001a.6.6 0 00-.788-.317 13.31 13.31 0 01-8.558.589l.562-.165a.6.6 0 10-.338-1.152l-2.4.704c-.008 0-.015.01-.023.013a.596.596 0 00-.155.086.52.52 0 00-.06.038.583.583 0 00-.193.451c.015.082.035.162.06.24.004.009 0 .018.007.027l1.2 2.296a.6.6 0 001.064-.556l-.488-.933c3.226.97 6.69.781 9.791-.533a.6.6 0 00.319-.786zM34.024 15.776a.6.6 0 00-.848 0l-.85.849a14.378 14.378 0 00-8.69-11.88.6.6 0 10-.471 1.104A13.18 13.18 0 0131.1 16.453l-.677-.677a.6.6 0 00-.848.848l1.8 1.8a.6.6 0 00.848.001h.001l1.8-1.8a.6.6 0 000-.85zM13.183 5.195a.56.56 0 00-.016-.103c0-.006-.007-.01-.009-.015-.002-.006 0-.01 0-.015a.584.584 0 00-.056-.083.606.606 0 00-.069-.1.565.565 0 00-.117-.079.532.532 0 00-.067-.049l-2.4-1.096a.6.6 0 00-.498 1.091l1.243.568A14.378 14.378 0 003.6 18a.6.6 0 101.2 0 13.18 13.18 0 016.494-11.366l-.434.906a.6.6 0 001.08.52l1.2-2.504c0-.006 0-.013.005-.019a.576.576 0 00.032-.127.621.621 0 00.023-.099.596.596 0 00-.017-.116z" fill="#000"/></svg>
